X:91
T: Mouth Of Tobique
M: 4/4
L: 1/8
R: reel
K: Gmaj
((3DEF |: "G" G)FGA Bded | BdBG DGBG | "D" AGFE DFAc | "G" BdBG D2 ((3DEF |
GF)GA Bded | BdBG DGBG | "D" AGFE DFAc |1 "G" B G2 G G2 ((3DEF :|2
B G2 G G2 ef |: "G" gfga gfeg | "D" fdAd fagf | "C" eGFE "D" DFAF | "G" GABc d2 (ef) |
gfga gfeg | "D" fdAd fagf | "C" eGFE "D" DFAc |1 "G" B G2 G G2 ef :|2 "G" B (G2 G) [B2G2] :|
 G [BG] z [c2G2] z [B2G2]| z2 [c2G2] z [B2G2] z| FG AB cA FD|GA Bc d2 (3DEF|
 G [BG] z [c2G2] z [B2G2]| z2 [c2G2] z [B2G2] z| FG AB cA FD|GB AF G2 (3DEF ||

